X:1
T:Title
%%score { ( 1 4 5 ) | ( 2 3 ) }
L:1/8
M:4/4
K:Eb
V:1 treble nm="Grand Piano"
V:4 treble 
V:5 treble 
V:2 treble 
V:3 treble 
V:1
 z8[Q:1/4=108] | [G,CEG]6 z2 | [CE]2 C4 A>G | [CA]4- [CA]>B A>G | [CEG]6 G>F | %5
 [CEG]4- [CEG]>F E>D | E2 C6 | BAGF E2 DE | C6 e>d | [FAc]4- [FAc]>=B c>d | [Ec]2 G4 e>d | %11
 z4 z z/ =B/ c>A | z4 C2 c>B | A4- A>G F>E | [=B,F]2 [B,D]6 | BAGF E2 DE | C6 z2 |] %17
V:2
 z4 z2 G>F | C,4- C,>[K:treble]F E>D | [C,,C,]2 [E,G,]4 z2 | [F,,F,]6 z2 | [C,,C,]4 z4 | %5
 [C,,C,]4 z4 | [C,C]2 [E,G,]6 | z4 [E,G,C]2 .[D,F,=B,]2 | [E,G,]6 z2 | z4 z z/[K:treble] A/ A>A | %10
 [C,,C,]2 [G,CE]4 z2 | [F,,F,]4 z z/[K:treble] A/ A>F | [C,,C,]4 G,2 z2 | C8 | %14
 [G,,G,]2 [G,,F,]4 z2 | z4 [E,G,C]2 [D,F,=B,]2 | [C,E,G,]6 z2 |] %17
V:3
 x8 | x11/2[K:treble] x5/2 | x8 | x8 | x8 | x8 | x8 | x8 | x8 | [F,,F,]6[K:treble] z2 | x8 | %11
 z4 G,2[K:treble] z2 | x8 | [F,A,]4 z4 | x8 | x8 | x8 |] %17
V:4
 x8 | x8 | x8 | x8 | x8 | x8 | x8 | x8 | x8 | x8 | x8 | [FAc]6 z2 | [EG]6 z2 | x8 | x8 | x8 | x8 |] %17
V:5
 x8 | x8 | x8 | x8 | x8 | x8 | x8 | x8 | x8 | x8 | x8 | z4 C2 z2 | x8 | x8 | x8 | x8 | x8 |] %17

